img/dark/f3.svg

<?xml version="1.0" encoding="UTF-8"?>
<svg width="24px" height="24px" viewBox="0 0 24 24" version="1.1" xmlns="http://www.w3.org/2000/svg" xmlns:xlink="http://www.w3.org/1999/xlink">
    <!-- Generator: Sketch 60.1 (88133) - https://sketch.com -->
    <title>f3_dark</title>
    <desc>Created with Sketch.</desc>
    <g id="f3_dark" stroke="none" stroke-width="1" fill="none" fill-rule="evenodd">
        <path d="M9,4 C5.6862915,4 3,6.6862915 3,10 L3.00783955,10.3090014 C3.0130578,10.4116495 3.02087298,10.5139177 3.03126072,10.6157233 L3.045,10.727 L3.02295886,10.7422071 C1.78361482,11.5595834 1,12.9573419 1,14.5 C1,16.9852814 3.01471863,19 5.5,19 L18.5,19 C20.9852814,19 23,16.9852814 23,14.5 L22.9948015,14.282302 C22.9050246,12.4060402 21.6610033,10.8110144 19.9312757,10.2328083 L19.806,10.194 L19.7677675,10.0690381 C19.1665047,8.27234501 17.4697085,7 15.5,7 L15.2357438,7.00766328 C14.9726977,7.02295284 14.7135504,7.06101018 14.4607186,7.120836 L14.288,7.166 L14.233847,7.0633 C13.1928601,5.20900092 11.2131428,4 9,4 Z M9,6 C10.7487327,6 12.2793185,7.1325443 12.8077264,8.77036369 L13.1872709,9.94677573 L14.2584658,9.32989586 C14.6318754,9.11485668 15.0563103,9 15.5,9 C16.7560784,9 17.8131764,9.93231372 17.9778007,11.1645122 L18.0790683,11.9224907 L18.8371011,12.0233507 C20.0678751,12.1871113 21,13.2440261 21,14.5 C21,15.8807119 19.8807119,17 18.5,17 L5.5,17 C4.11928813,17 3,15.8807119 3,14.5 C3,13.4793658 3.61705934,12.5730607 4.54401802,12.1890088 L5.34846923,11.8557133 L5.12895938,11.0130728 C5.04372969,10.6858986 5,10.3461151 5,10 C5,7.790861 6.790861,6 9,6 Z" id="形状结合" fill="#FFFFFF"></path>
    </g>
</svg>

<svg xmlns="http://www.w3.org/2000/svg" width="24" height="24" xmlns:v="https://vecta.io/nano"><path d="M9 4a6 6 0 0 0-6 6l.008.31.023.307.014.11-.022.015A4.5 4.5 0 0 0 5.5 19h13a4.5 4.5 0 0 0 4.5-4.5l-.005-.218c-.1-1.876-1.334-3.47-3.064-4.05l-.125-.04-.038-.125C19.167 8.272 17.47 7 15.5 7l-.264.008a4.5 4.5 0 0 0-.775.113l-.173.045-.054-.103C13.193 5.21 11.213 4 9 4zm0 2a4 4 0 0 1 3.808 2.77l.38 1.176 1.07-.617c.373-.215.798-.33 1.242-.33a2.5 2.5 0 0 1 2.478 2.165l.1.758.758.1A2.5 2.5 0 0 1 18.5 17h-13a2.5 2.5 0 0 1-.956-4.811l.804-.333-.22-.843C5.044 10.686 5 10.346 5 10a4 4 0 0 1 4-4z" fill="#fff" fill-rule="evenodd"/></svg>
